X: 2380
T: SARATOGA HORNPIPE
%R: hornpipe, reel
B: James Kerr "Merry Melodies" v.2 p.42 #380
Z: 2016 John Chambers <jc:trillian.mit.edu>
M: C
L: 1/8
K: F	% and Dm
(uAB) |\
c=BcA d_Bfd | cAFA  cAdc |\
BAGB  AGFA  | Gc=Bd c_BAB |\
c=BcA d_Bfd | cAFA  cdef |\
defg  efga  | f2f2f2 :|
|: (uef) |\
aAgA  fAeA | fAeA dAfA |\
eA^ce agfe | fgef defg |\
aAgA  fAeA | fAeA dAdf |\
defg  efga | f2f2f2 :|

%%sep 1 1 500
%%sep 1 1 500

